X:51
T: Der Nachtjaeger
N: Q0133G
O: Mitteleuropa, Deutschland / UdSSR, Ostpreussen
R: Ballade, Jagd, Flucht, Vergewaltigung, Tod
M: 4/4
L: 1/8
K: F
F2 | A2F2AAc2 | c3AF2z2 |
f4e2d2 | c4z2
A2 | BAGBdcBG | F3Ac3z |
G4E4 | F3z3

@@@ Tune index: 1549
